!!!SOCIAL_FUNCTION:	songs of social dance
!!!PDT:	1939
!!!OTL: No_78_Song_Belonging_to_the_Last_Makah_Chief_.krn
!!!LANG: Non-Tone
!!!LING_GROUP: Wakashan
!!!REG: Pacific Northwest
**kern
*staff1
=1-
*clefF4
*k[f#c#]
*M2/4
4r
8r
16r
16B\
=2
4B\
4c#\
=3||
*M5/4
[2d\
2d\_
8.d\L]
16e\Jk
=4||
*M2/4
4..d\
16d\
=5
4..d\
16d\
=6
16d\LK
[8.c#\J
8.c#\L]
16B\Jk
=7||
*M3/8
4B\
8c#\
=8||
*M3/4
2c#\
8r
16r
16c#\
=9||
*M2/4
4..c#\
16c#\
=10
16c#\LK
8.B\J
8.A#\L
16B\Jk
=11
4B\
8B\L
8A#\J
=12
4B\
8B\
8r
=13
4.B\
8B\
=14
4B\
8r
16r
16B\
=15
4B\
8.c#\L
16c#\Jk
=16
[2c#\
=17
2c#\]
=18
8d\L
8c#\J
8B\
8r
=19
4d\
8.c#\L
16c#\Jk
=20
16c#\LK
8.B\J
8.A#\L
16B\Jk
=21
4B\
8B\L
8A#\J
=22
4B\
8B\
8r
=23
4B\
8B\L
8A#\J
=24
4B\
4r
==
*-
